static/data/images/sponsors/onesignal.svg

<svg fill="none" height="41" viewBox="0 0 172 41" width="172" xmlns="http://www.w3.org/2000/svg"><g clip-rule="evenodd" fill="#e54b4d" fill-rule="evenodd"><path d="m109.827 29.4535c4.587 0 6.611-2.4599 6.611-5.3042 0-6.3548-9.942-4.3817-9.942-7.5848 0-1.2555 1.128-2.1268 2.87-2.1268 1.794 0 3.613.615 4.971 1.9731l1.691-2.2293c-1.563-1.5375-3.741-2.4087-6.38-2.4087-3.767 0-6.227 2.1781-6.227 5.0224 0 6.2779 9.942 4.0486 9.942 7.636 0 1.153-.948 2.3574-3.408 2.3574-2.383 0-4.253-1.1275-5.406-2.3831l-1.692 2.3318c1.538 1.5887 3.818 2.7162 6.97 2.7162zm10.634-14.1957c.923 0 1.666-.7431 1.666-1.6656s-.743-1.6656-1.666-1.6656c-.922 0-1.665.7431-1.665 1.6656s.743 1.6656 1.665 1.6656zm1.333 13.8882v-12.3765h-2.691v12.3765zm8.532 5.0224c-2.101 0-3.664-.4612-5.201-1.8449l1.255-1.9474c1.025 1.1531 2.307 1.5887 3.946 1.5887 1.769 0 3.665-.82 3.665-3.4593v-1.4093c-.948 1.2556-2.358 2.0755-3.972 2.0755-3.152 0-5.484-2.2805-5.484-6.3548 0-4.0229 2.281-6.3547 5.484-6.3547 1.563 0 2.972.6918 3.972 2.0243v-1.7169h2.69v11.7359c0 4.4586-3.331 5.6629-6.355 5.6629zm.487-7.4054c1.256 0 2.563-.7431 3.178-1.64v-4.6379c-.615-.8969-1.922-1.64-3.178-1.64-2.152 0-3.51 1.5887-3.51 3.9718 0 2.383 1.358 3.9461 3.51 3.9461zm20.423 2.3831v-8.7122c0-2.5368-1.333-3.9717-3.998-3.9717-1.947 0-3.561.9993-4.381 1.973v-1.6656h-2.691v12.3765h2.691v-8.661c.64-.8199 1.819-1.6399 3.177-1.6399 1.512 0 2.511.615 2.511 2.5624v7.7385zm13.76 0h-2.691v-1.3581c-.922 1.0762-2.383 1.6656-4.023 1.6656-1.998 0-4.279-1.3837-4.279-4.0999 0-2.8699 2.255-4.0486 4.279-4.0486 1.692 0 3.101.5381 4.023 1.5887v-1.8449c0-1.435-1.204-2.3062-2.895-2.3062-1.384 0-2.614.5125-3.664 1.5887l-1.128-1.8706c1.435-1.3837 3.229-1.9986 5.202-1.9986 2.767 0 5.176 1.153 5.176 4.4586zm-5.637-1.5376c1.153 0 2.306-.4356 2.946-1.2812v-1.8962c-.64-.8456-1.793-1.2812-2.946-1.2812-1.512 0-2.665.8968-2.665 2.2293 0 1.3581 1.153 2.2293 2.665 2.2293zm11.812 1.5374v-17.0913h-2.69v17.0913z"/><path d="m62.7677 29.4535c-5.0479 0-8.4816-3.7924-8.4816-8.8403 0-5.048 3.4337-8.8404 8.4816-8.8404 5.048 0 8.5072 3.7924 8.5072 8.8404 0 5.0479-3.4592 8.8403-8.5072 8.8403zm.0001-1.8963c3.818 0 6.3035-2.9724 6.3035-6.9441 0-3.9974-2.4855-6.9442-6.3035-6.9442-3.8437 0-6.278 2.9468-6.278 6.9442 0 3.9717 2.4343 6.9441 6.278 6.9441zm21.4287 1.5889v-8.6866c0-2.6905-1.3581-3.9973-3.9205-3.9973-1.8706 0-3.5618 1.0505-4.433 2.1011v-1.7937h-1.9218v12.3765h1.9218v-9.0453c.7431-.9994 2.1524-1.9218 3.6643-1.9218 1.6655 0 2.793.6662 2.793 2.8699v8.0972zm8.8986.3075c-3.6899 0-6.3292-2.6393-6.3292-6.5085 0-3.5874 2.5624-6.4829 6.0985-6.4829 3.7412 0 5.9448 2.9211 5.9448 6.6366v.4869h-9.9934c.1538 2.3318 1.7681 4.2792 4.433 4.2792 1.435 0 2.8443-.5637 3.8436-1.5887l.9225 1.2556c-1.2556 1.2299-2.9212 1.9218-4.9198 1.9218zm3.818-7.303c-.0257-1.8193-1.2556-4.0999-4.0743-4.0999-2.6393 0-3.9461 2.2293-4.0486 4.0999z"/><path d="m26.1622 33.5149c4.8412-1.7 8.3243-6.26 8.3243-11.6247 0-6.8118-5.6011-12.35297-12.4865-12.35297s-12.48647 5.54117-12.48647 12.35297c0 5.7964 4.06227 10.6564 9.51347 11.98v1.2117c-6.1207-1.3435-10.70266-6.7317-10.70266-13.1917 0-7.4718 6.12316-13.52944 13.67566-13.52944 7.5526 0 13.6757 6.05764 13.6757 13.52944 0 6.0341-3.9981 11.1364-9.5135 12.8788zm-4.1621-18.0952c-3.6069 0-6.5406 2.9023-6.5406 6.4705 0 2.5059 1.4568 4.6671 3.5676 5.74v1.3083c-2.791-1.1518-4.7568-3.8694-4.7568-7.0483 0-4.2235 3.4606-7.647 7.7298-7.647 4.2691 0 7.7297 3.4235 7.7297 7.647 0 2.7036-1.427 5.0683-3.5676 6.4271v-1.4635c1.4461-1.1871 2.3784-2.9636 2.3784-4.9636 0-3.5682-2.9337-6.4705-6.5405-6.4705zm-22.0001 6.4705c0 7.6423 3.98854 14.3518 10.0118 18.2353.3639-.2353.7373-.4565 1.1143-.6706.2699-.1518.5422-.2965.8193-.4376.3306-.1683.666-.3283 1.0061-.48.3389-.1518.6814-.293 1.0298-.4283.283-.1094.5684-.2117.8574-.3106.4031-.1376.8122-.2635 1.2272-.3788.3116-.0859.6256-.1671.9431-.24.3211-.0741.6433-.1435.9704-.2035.3472-.0636.6956-.1235 1.0476-.1718.3948-.04.7885-.087 1.1892-.1188v-1.3941-1.1894-4.7777-1.2141-4.4553h-1.1892v-2.3529h1.1892 3.5676 1.1892v6.3447 1.3023 4.9259 1.2141 1.7141c3.2916.4553 6.3514 1.6047 9.0128 3.3212 6.0257-3.8823 10.0142-10.5918 10.0142-18.2341 0-12.02001-9.8501-21.764712-22-21.764712-12.14995 0-22 9.744702-22 21.764712z"/></g></svg>

<svg class="logo-red" width="172" height="41" viewBox="0 0 172 41" fill="none" xmlns="http://www.w3.org/2000/svg">
<path fill-rule="evenodd" clip-rule="evenodd" d="M109.827 29.4535C114.414 29.4535 116.438 26.9936 116.438 24.1493C116.438 17.7945 106.496 19.7676 106.496 16.5645C106.496 15.309 107.624 14.4377 109.366 14.4377C111.16 14.4377 112.979 15.0527 114.337 16.4108L116.028 14.1815C114.465 12.644 112.287 11.7728 109.648 11.7728C105.881 11.7728 103.421 13.9509 103.421 16.7952C103.421 23.0731 113.363 20.8438 113.363 24.4312C113.363 25.5842 112.415 26.7886 109.955 26.7886C107.572 26.7886 105.702 25.6611 104.549 24.4055L102.857 26.7373C104.395 28.326 106.675 29.4535 109.827 29.4535ZM120.461 15.2578C121.384 15.2578 122.127 14.5147 122.127 13.5922C122.127 12.6697 121.384 11.9266 120.461 11.9266C119.539 11.9266 118.796 12.6697 118.796 13.5922C118.796 14.5147 119.539 15.2578 120.461 15.2578ZM121.794 29.146V16.7695H119.103V29.146H121.794ZM130.326 34.1684C128.225 34.1684 126.662 33.7072 125.125 32.3235L126.38 30.3761C127.405 31.5292 128.687 31.9648 130.326 31.9648C132.095 31.9648 133.991 31.1448 133.991 28.5055V27.0962C133.043 28.3518 131.633 29.1717 130.019 29.1717C126.867 29.1717 124.535 26.8912 124.535 22.8169C124.535 18.794 126.816 16.4622 130.019 16.4622C131.582 16.4622 132.991 17.154 133.991 18.4865V16.7696H136.681V28.5055C136.681 32.9641 133.35 34.1684 130.326 34.1684ZM130.813 26.763C132.069 26.763 133.376 26.0199 133.991 25.123V20.4851C133.376 19.5882 132.069 18.8451 130.813 18.8451C128.661 18.8451 127.303 20.4338 127.303 22.8169C127.303 25.1999 128.661 26.763 130.813 26.763ZM151.236 29.1461V20.4339C151.236 17.8971 149.903 16.4622 147.238 16.4622C145.291 16.4622 143.677 17.4615 142.857 18.4352V16.7696H140.166V29.1461H142.857V20.4851C143.497 19.6652 144.676 18.8452 146.034 18.8452C147.546 18.8452 148.545 19.4602 148.545 21.4076V29.1461H151.236ZM164.996 29.1461H162.305V27.788C161.383 28.8642 159.922 29.4536 158.282 29.4536C156.284 29.4536 154.003 28.0699 154.003 25.3537C154.003 22.4838 156.258 21.3051 158.282 21.3051C159.974 21.3051 161.383 21.8432 162.305 22.8938V21.0489C162.305 19.6139 161.101 18.7427 159.41 18.7427C158.026 18.7427 156.796 19.2552 155.746 20.3314L154.618 18.4608C156.053 17.0771 157.847 16.4622 159.82 16.4622C162.587 16.4622 164.996 17.6152 164.996 20.9208V29.1461ZM159.359 27.6085C160.512 27.6085 161.665 27.1729 162.305 26.3273V24.4311C161.665 23.5855 160.512 23.1499 159.359 23.1499C157.847 23.1499 156.694 24.0467 156.694 25.3792C156.694 26.7373 157.847 27.6085 159.359 27.6085ZM171.171 29.1459V12.0546H168.481V29.1459H171.171Z" fill="#E54B4D"></path>
<path fill-rule="evenodd" clip-rule="evenodd" d="M62.7677 29.4535C57.7198 29.4535 54.2861 25.6611 54.2861 20.6132C54.2861 15.5652 57.7198 11.7728 62.7677 11.7728C67.8157 11.7728 71.2749 15.5652 71.2749 20.6132C71.2749 25.6611 67.8157 29.4535 62.7677 29.4535ZM62.7678 27.5572C66.5858 27.5572 69.0713 24.5848 69.0713 20.6131C69.0713 16.6157 66.5858 13.6689 62.7678 13.6689C58.9241 13.6689 56.4898 16.6157 56.4898 20.6131C56.4898 24.5848 58.9241 27.5572 62.7678 27.5572ZM84.1965 29.1461V20.4595C84.1965 17.769 82.8384 16.4622 80.276 16.4622C78.4054 16.4622 76.7142 17.5127 75.843 18.5633V16.7696H73.9212V29.1461H75.843V20.1008C76.5861 19.1014 77.9954 18.179 79.5073 18.179C81.1728 18.179 82.3003 18.8452 82.3003 21.0489V29.1461H84.1965ZM93.0951 29.4536C89.4052 29.4536 86.7659 26.8143 86.7659 22.9451C86.7659 19.3577 89.3283 16.4622 92.8644 16.4622C96.6056 16.4622 98.8092 19.3833 98.8092 23.0988V23.5857H88.8158C88.9696 25.9175 90.5839 27.8649 93.2488 27.8649C94.6838 27.8649 96.0931 27.3012 97.0924 26.2762L98.0149 27.5318C96.7593 28.7617 95.0937 29.4536 93.0951 29.4536ZM96.9131 22.1506C96.8874 20.3313 95.6575 18.0507 92.8388 18.0507C90.1995 18.0507 88.8927 20.28 88.7902 22.1506H96.9131Z" fill="#E54B4D"></path>
<path fill-rule="evenodd" clip-rule="evenodd" d="M26.1622 33.5149C31.0034 31.8149 34.4865 27.2549 34.4865 21.8902C34.4865 15.0784 28.8854 9.53723 22 9.53723C15.1146 9.53723 9.51353 15.0784 9.51353 21.8902C9.51353 27.6866 13.5758 32.5466 19.027 33.8702V35.0819C12.9063 33.7384 8.32434 28.3502 8.32434 21.8902C8.32434 14.4184 14.4475 8.36076 22 8.36076C29.5526 8.36076 35.6757 14.4184 35.6757 21.8902C35.6757 27.9243 31.6776 33.0266 26.1622 34.769V33.5149ZM22.0001 15.4197C18.3932 15.4197 15.4595 18.322 15.4595 21.8902C15.4595 24.3961 16.9163 26.5573 19.0271 27.6302V28.9385C16.2361 27.7867 14.2703 25.0691 14.2703 21.8902C14.2703 17.6667 17.7309 14.2432 22.0001 14.2432C26.2692 14.2432 29.7298 17.6667 29.7298 21.8902C29.7298 24.5938 28.3028 26.9585 26.1622 28.3173V26.8538C27.6083 25.6667 28.5406 23.8902 28.5406 21.8902C28.5406 18.322 25.6069 15.4197 22.0001 15.4197ZM0 21.8902C0 29.5325 3.98854 36.242 10.0118 40.1255C10.3757 39.8902 10.7491 39.669 11.1261 39.4549C11.396 39.3031 11.6683 39.1584 11.9454 39.0173C12.276 38.849 12.6114 38.689 12.9515 38.5373C13.2904 38.3855 13.6329 38.2443 13.9813 38.109C14.2643 37.9996 14.5497 37.8973 14.8387 37.7984C15.2418 37.6608 15.6509 37.5349 16.0659 37.4196C16.3775 37.3337 16.6915 37.2525 17.009 37.1796C17.3301 37.1055 17.6523 37.0361 17.9794 36.9761C18.3266 36.9125 18.675 36.8526 19.027 36.8043C19.4218 36.7643 19.8155 36.7173 20.2162 36.6855V35.2914V34.102V29.3243V28.1102V23.6549H19.027V21.302H20.2162H23.7838H24.973V27.6467V28.949V33.8749V35.089V36.8031C28.2646 37.2584 31.3244 38.4078 33.9858 40.1243C40.0115 36.242 44 29.5325 44 21.8902C44 9.87019 34.1499 0.125488 22 0.125488C9.85005 0.125488 0 9.87019 0 21.8902Z" fill="#E54B4D"></path>
</svg>
